X: 33263
T: Pumphouse, The
R: jig
M: 6/8
K: Amixolydian
|:A,3 A,B,/C/D|E3 EAG|FAD DEF|FGE FDB,|
A,EA, A,B,/C/D|~E3 EAG|FAD GFD|1 ECA, A,EC:|2 ECA, A,2f||
ecA AB/c/d|eae ecA|dBG GBd|~g3 GBd|
ecA AB/c/d|eae ecA|dBg GBd|ecA A2f|
ecA AB/c/d|eae ecA|dBG GBd|~g3 GBd|
c3 ~d3|edc Bcd|edc dBe|ABA AEC||

